release/img/logo_sber.svg

<svg width="84" height="38" viewBox="0 0 84 38" fill="none" xmlns="http://www.w3.org/2000/svg">
<path d="M61.8359 14.3464L64.7217 12.2168H55.0605V24.9733H64.7217V22.8437H57.8209V19.5867H63.7179V17.4572H57.8209V14.3464H61.8359Z" fill="white"/>
<path d="M47.7624 17.1858H44.4166V14.3464H49.7699L52.6557 12.2168H41.6562V24.9733H47.4069C50.6273 24.9733 52.4884 23.5118 52.4884 20.9647C52.4884 18.522 50.8155 17.1858 47.7624 17.1858ZM47.3024 22.8437H44.4166V19.3153H47.3024C49.0589 19.3153 49.8745 19.8999 49.8745 21.09C49.8745 22.28 48.9962 22.8437 47.3024 22.8437Z" fill="white"/>
<path d="M72.5418 12.2168H67.293V24.9733H70.0533V21.3614H72.5627C75.9085 21.3614 77.9997 19.6076 77.9997 16.7891C77.9997 13.9706 75.9085 12.2168 72.5418 12.2168ZM72.479 19.2318H70.0324V14.3464H72.479C74.2565 14.3464 75.2184 15.2232 75.2184 16.7891C75.2184 18.3549 74.2565 19.2318 72.479 19.2318Z" fill="white"/>
<path d="M36.9291 22.2178C36.1971 22.6145 35.3816 22.8232 34.5451 22.8232C32.0567 22.8232 30.2583 21.0486 30.2583 18.6059C30.2583 16.1631 32.0567 14.3885 34.5451 14.3885C35.4443 14.3676 36.3226 14.6599 37.0545 15.1819L39.0411 13.7204L38.9156 13.5951C37.7655 12.5721 36.2181 12.0502 34.4615 12.0502C32.5585 12.0502 30.8229 12.6974 29.5682 13.8666C28.3135 15.0775 27.6025 16.7686 27.6443 18.5224C27.6234 20.297 28.3135 22.009 29.5682 23.2617C30.8856 24.4935 32.6422 25.1825 34.4406 25.1407C36.4272 25.1407 38.1628 24.4517 39.3339 23.199L37.5564 21.8837L36.9291 22.2178Z" fill="white"/>
<path d="M19.0088 12.1345C19.5107 12.7817 19.9289 13.4916 20.2844 14.2432L10.6232 21.3626L6.56641 18.8155V15.7673L10.6023 18.2935L19.0088 12.1345Z" fill="white"/>
<path d="M2.44665 18.6061C2.44665 18.4599 2.44665 18.3346 2.46756 18.1885L0.0209116 18.0632C0.0209116 18.2303 0 18.4182 0 18.5852C0 21.5081 1.19196 24.1596 3.11582 26.0804L4.85148 24.3475C3.36676 22.8861 2.44665 20.8609 2.44665 18.6061Z" fill="white"/>
<path d="M10.6016 10.4642C10.7479 10.4642 10.8734 10.4642 11.0198 10.4851L11.1453 8.04236C10.978 8.04236 10.7898 8.02148 10.6225 8.02148C7.69486 8.02148 5.0391 9.21153 3.11523 11.1323L4.85089 12.8652C6.3147 11.3828 8.36403 10.4642 10.6016 10.4642Z" fill="white"/>
<path d="M10.6023 26.7488C10.4559 26.7488 10.3304 26.7488 10.1841 26.7279L10.0586 29.1706C10.2259 29.1706 10.4141 29.1915 10.5814 29.1915C13.509 29.1915 16.1648 28.0014 18.0886 26.0807L16.353 24.3478C14.8892 25.851 12.8607 26.7488 10.6023 26.7488Z" fill="white"/>
<path d="M15.2041 11.8831L17.2743 10.359C15.455 8.89751 13.1338 7.99976 10.6035 7.99976V10.4425C12.3183 10.4634 13.9075 10.9853 15.2041 11.8831Z" fill="white"/>
<path d="M21.2263 18.6055C21.2263 17.9582 21.1635 17.3319 21.059 16.7056L18.7796 18.3967C18.7796 18.4593 18.7796 18.5428 18.7796 18.6055C18.7796 21.0064 17.734 23.1569 16.082 24.6392L17.734 26.4556C19.867 24.5348 21.2263 21.7163 21.2263 18.6055Z" fill="white"/>
<path d="M10.603 26.7478C8.19815 26.7478 6.04426 25.7039 4.55954 24.0546L2.74023 25.7039C4.68501 27.8544 7.48716 29.1906 10.603 29.1906V26.7478Z" fill="white"/>
<path d="M5.14424 12.5724L3.49223 10.756C1.33834 12.6976 0 15.4953 0 18.6061H2.44665C2.44665 16.226 3.49223 14.0547 5.14424 12.5724Z" fill="white"/>
</svg>

<svg xmlns="http://www.w3.org/2000/svg" width="84" height="38" fill="none" viewBox="0 0 84 38">
  <path fill="#fff" d="m61.836 14.346 2.886-2.13H55.06v12.757h9.66v-2.13h-6.9v-3.256h5.897v-2.13H57.82v-3.11h4.015Zm-14.074 2.84h-3.345v-2.84h5.353l2.886-2.13h-11v12.757h5.75c3.221 0 5.082-1.461 5.082-4.008 0-2.443-1.672-3.78-4.726-3.78Zm-.46 5.658h-2.885v-3.529h2.885c1.757 0 2.572.585 2.572 1.775s-.878 1.754-2.572 1.754Zm25.24-10.627h-5.249v12.756h2.76v-3.612h2.51c3.346 0 5.437-1.753 5.437-4.572 0-2.818-2.091-4.572-5.458-4.572Zm-.063 7.015h-2.447v-4.886h2.447c1.778 0 2.74.877 2.74 2.443s-.962 2.443-2.74 2.443ZM36.93 22.218a4.993 4.993 0 0 1-2.385.605c-2.488 0-4.287-1.774-4.287-4.217 0-2.443 1.799-4.218 4.287-4.218a4.17 4.17 0 0 1 2.51.794l1.986-1.462-.125-.125c-1.15-1.023-2.698-1.545-4.454-1.545-1.904 0-3.64.647-4.894 1.817a6.282 6.282 0 0 0-1.924 4.655 6.586 6.586 0 0 0 1.924 4.74 6.933 6.933 0 0 0 4.873 1.879c1.986 0 3.722-.69 4.893-1.942l-1.778-1.315-.627.334ZM19.009 12.134c.502.648.92 1.358 1.275 2.11l-9.66 7.119-4.058-2.547v-3.049l4.036 2.527 8.407-6.16ZM2.447 18.606c0-.146 0-.271.02-.418l-2.446-.125c0 .167-.021.355-.021.522 0 2.923 1.192 5.575 3.116 7.495l1.735-1.732a8.018 8.018 0 0 1-2.404-5.742Zm8.155-8.142c.146 0 .271 0 .418.021l.125-2.443c-.167 0-.355-.02-.522-.02-2.928 0-5.584 1.19-7.508 3.11l1.736 1.733a8.08 8.08 0 0 1 5.75-2.4Zm0 16.285c-.146 0-.272 0-.418-.021l-.125 2.443c.167 0 .355.02.522.02 2.928 0 5.584-1.19 7.508-3.11l-1.736-1.733c-1.464 1.503-3.492 2.4-5.75 2.4Z"/>
  <path fill="#fff" d="m15.204 11.883 2.07-1.524a10.633 10.633 0 0 0-6.67-2.36v2.444c1.714.02 3.304.542 4.6 1.44Zm6.022 6.722c0-.647-.063-1.273-.167-1.9l-2.28 1.692v.209c0 2.4-1.045 4.55-2.697 6.033l1.652 1.817a10.568 10.568 0 0 0 3.492-7.85Zm-10.623 8.143a8.108 8.108 0 0 1-6.043-2.693l-1.82 1.649a10.559 10.559 0 0 0 7.863 3.487v-2.443ZM5.144 12.572l-1.652-1.816A10.527 10.527 0 0 0 0 18.606h2.447a8.117 8.117 0 0 1 2.697-6.034Z"/>
</svg>
